X:42
T: Lesütött a nap a síkra
K: F
M: 2/4
L: 1/4
g d | g/g/a/g/ | f d | 
g c | d/f/g/d/ | c G | 
c d | B/G/G/F/ | B G | 
d c | B/G/G/F/ | G G | 

